Origami/32x32/apps/xcas.svg

<svg width="32" height="32" version="1" xmlns="http://www.w3.org/2000/svg">
 <rect transform="matrix(0,-1,-1,0,0,0)" x="-31" y="-30" width="29" height="29" rx="14.5" ry="14.5" style="opacity:.2"/>
 <rect transform="matrix(0,-1,-1,0,0,0)" x="-30" y="-30" width="29" height="29" rx="14.5" ry="14.5" style="fill:#936ff6"/>
 <path d="m15.5 6a1.5 1.5 0 0 0 -1.5 1.5 1.5 1.5 0 0 0 1 1.4121094v2.0195316l-2.179688-1.8164066a0.50064393 0.50064393 0 1 0 -0.640624 0.7695312l2.820312 2.3496094v3.398437l-2.943359-1.699218-0.626953-3.617188a0.50005 0.50005 0 1 0 -0.984376 0.169922l0.482422 2.796875-1.7499996-1.009765a1.5 1.5 0 0 0 -0.7226563 -1.572266 1.5 1.5 0 0 0 -2.0488281 0.548828 1.5 1.5 0 0 0 0.5488281 2.048828 1.5 1.5 0 0 0 1.7226563 -0.158203l1.7499996 1.009766-2.662109 0.978515a0.50005 0.50005 0 1 0 0.3457031 0.9375l3.4433599-1.265625 2.943359 1.699219-2.943359 1.699219-3.4433599-1.265625a0.50005 0.50005 0 1 0 -0.3457031 0.9375l2.662109 0.978515-1.7499996 1.009766a1.5 1.5 0 0 0 -1.7226563 -0.158203 1.5 1.5 0 0 0 -0.5488281 2.048828 1.5 1.5 0 0 0 2.0488281 0.548828 1.5 1.5 0 0 0 0.7226563 -1.572266l1.7499996-1.009765-0.482422 2.796875a0.50005 0.50005 0 1 0 0.984376 0.169922l0.59375-3.433594h-0.285157l0.05859-0.0332a0.50005 0.50005 0 0 0 0.121094 -0.07031l3.082035-1.779302v3.398437l-2.820312 2.349609a0.50064424 0.50064424 0 1 0 0.640624 0.769532l2.179688-1.816407v2.019532a1.5 1.5 0 0 0 -1 1.412109 1.5 1.5 0 0 0 1.5 1.5 1.5 1.5 0 0 0 1.5 -1.5 1.5 1.5 0 0 0 -1 -1.412109v-2.019532l2.179688 1.816407a0.50064424 0.50064424 0 1 0 0.640624 -0.769532l-2.820312-2.349609v-3.398437l3.082031 1.777343a0.50005 0.50005 0 0 0 0.125 0.07422l0.05469 0.03125h-0.285157l0.59375 3.433594a0.50005 0.50005 0 1 0 0.984376 -0.169922l-0.482422-2.796875 1.748046 1.009765a1.5 1.5 0 0 0 0.72461 1.572266 1.5 1.5 0 0 0 2.048826 -0.548829 1.5 1.5 0 0 0 -0.548828 -2.048828 1.5 1.5 0 0 0 -1.722656 0.158203l-1.75-1.009766 2.662109-0.978515a0.50005 0.50005 0 1 0 -0.345703 -0.9375l-3.44336 1.265625-2.943359-1.699219 2.943359-1.699219 3.44336 1.265625a0.50005 0.50005 0 1 0 0.345703 -0.9375l-2.662109-0.978515 1.75-1.009766a1.5 1.5 0 0 0 1.722656 0.158203 1.5 1.5 0 0 0 0.548828 -2.048828 1.5 1.5 0 0 0 -2.048828 -0.548828 1.5 1.5 0 0 0 -0.72461 1.572266l-1.748046 1.009765 0.482422-2.796875a0.50005 0.50005 0 1 0 -0.984376 -0.169922l-0.626953 3.617188-2.943359 1.699218v-3.398437l2.820312-2.3496094a0.50064393 0.50064393 0 1 0 -0.640624 -0.7695312l-2.179688 1.8164066v-2.0195316a1.5 1.5 0 0 0 1 -1.4121094 1.5 1.5 0 0 0 -1.5 -1.5z" style="opacity:.2"/>
 <path d="m15.5 5a1.5 1.5 0 0 0 -1.5 1.5 1.5 1.5 0 0 0 1 1.4121094v2.0195312l-2.179688-1.8164062a0.50064393 0.50064393 0 1 0 -0.640624 0.7695312l2.820312 2.3496094v3.398437l-2.943359-1.699218-0.626953-3.6171878a0.50005 0.50005 0 1 0 -0.984376 0.1699219l0.482422 2.7968749-1.7499996-1.009765a1.5 1.5 0 0 0 -0.7226563 -1.5722661 1.5 1.5 0 0 0 -2.0488281 0.5488281 1.5 1.5 0 0 0 0.5488281 2.048828 1.5 1.5 0 0 0 1.7226563 -0.158203l1.7499996 1.009766-2.662109 0.978515a0.50005 0.50005 0 1 0 0.3457031 0.9375l3.4433599-1.265625 2.943359 1.699219-2.943359 1.699219-3.4433599-1.265625a0.50005 0.50005 0 1 0 -0.3457031 0.9375l2.662109 0.978515-1.7499996 1.009766a1.5 1.5 0 0 0 -1.7226563 -0.158203 1.5 1.5 0 0 0 -0.5488281 2.048828 1.5 1.5 0 0 0 2.0488281 0.548828 1.5 1.5 0 0 0 0.7226563 -1.572266l1.7499996-1.009765-0.482422 2.796875a0.50005 0.50005 0 1 0 0.984376 0.169922l0.59375-3.433594h-0.285157l0.058594-0.033203a0.50005 0.50005 0 0 0 0.121094 -0.070313l3.082031-1.779296v3.398437l-2.820312 2.349609a0.50064424 0.50064424 0 1 0 0.640624 0.769532l2.179688-1.816407v2.019532a1.5 1.5 0 0 0 -1 1.412109 1.5 1.5 0 0 0 1.5 1.5 1.5 1.5 0 0 0 1.5 -1.5 1.5 1.5 0 0 0 -1 -1.412109v-2.019532l2.179688 1.816407a0.50064424 0.50064424 0 1 0 0.640624 -0.769532l-2.820312-2.349609v-3.398437l3.082031 1.777343a0.50005 0.50005 0 0 0 0.125 0.074219l0.054688 0.03125h-0.285157l0.59375 3.433594a0.50005 0.50005 0 1 0 0.984376 -0.169922l-0.482422-2.796875 1.748046 1.009765a1.5 1.5 0 0 0 0.72461 1.572266 1.5 1.5 0 0 0 2.048828 -0.548828 1.5 1.5 0 0 0 -0.548828 -2.048828 1.5 1.5 0 0 0 -1.722656 0.158203l-1.75-1.009766 2.662109-0.978515a0.50005 0.50005 0 1 0 -0.345703 -0.9375l-3.44336 1.265625-2.943359-1.699219 2.943359-1.699219 3.44336 1.265625a0.50005 0.50005 0 1 0 0.345703 -0.9375l-2.662109-0.978515 1.75-1.009766a1.5 1.5 0 0 0 1.722656 0.158203 1.5 1.5 0 0 0 0.548828 -2.048828 1.5 1.5 0 0 0 -2.048828 -0.5488281 1.5 1.5 0 0 0 -0.72461 1.5722661l-1.748046 1.009765 0.482422-2.7968749a0.50005 0.50005 0 1 0 -0.984376 -0.1699219l-0.626953 3.6171878-2.943359 1.699218v-3.398437l2.820312-2.3496094a0.50064393 0.50064393 0 1 0 -0.640624 -0.7695312l-2.179688 1.8164062v-2.0195312a1.5 1.5 0 0 0 1 -1.4121094 1.5 1.5 0 0 0 -1.5 -1.5z" style="fill:#ffffff"/>
 <path d="M 15.5 1 C 7.467 1 1 7.467 1 15.5 C 1 15.668901 1.0197182 15.832529 1.0253906 16 C 1.2895 8.2024902 7.6359007 2 15.5 2 C 23.364099 2 29.7105 8.2024902 29.974609 16 C 29.980282 15.832529 30 15.668901 30 15.5 C 30 7.467 23.533 1 15.5 1 z" style="fill:#ffffff;opacity:.2"/>
</svg>

<svg xmlns="http://www.w3.org/2000/svg" width="32" height="32" version="1">
 <rect style="opacity:0.2" width="29" height="29" x="-31" y="-30" rx="14.5" ry="14.5" transform="matrix(0,-1,-1,0,0,0)"/>
 <rect width="29" height="29" x="-30" y="-30" rx="14.5" ry="14.5" transform="matrix(0,-1,-1,0,0,0)" style="fill:#936ff6"/>
 <path d="M 15.5,6 A 1.5,1.5 0 0 0 14,7.5 1.5,1.5 0 0 0 15,8.9121094 L 15,10.931641 12.820312,9.1152344 A 0.50064393,0.50064393 0 1 0 12.179688,9.8847656 L 15,12.234375 l 0,3.398437 -2.943359,-1.699218 -0.626953,-3.617188 a 0.50005,0.50005 0 1 0 -0.984376,0.169922 l 0.482422,2.796875 -1.7499996,-1.009765 A 1.5,1.5 0 0 0 8.4550781,10.701172 1.5,1.5 0 0 0 6.40625,11.25 1.5,1.5 0 0 0 6.9550781,13.298828 1.5,1.5 0 0 0 8.6777344,13.140625 l 1.7499996,1.009766 -2.662109,0.978515 a 0.50005,0.50005 0 1 0 0.3457031,0.9375 L 11.554688,14.800781 14.498047,16.5 11.554688,18.199219 8.1113281,16.933594 a 0.50005,0.50005 0 1 0 -0.3457031,0.9375 l 2.662109,0.978515 -1.7499996,1.009766 A 1.5,1.5 0 0 0 6.9550781,19.701172 1.5,1.5 0 0 0 6.40625,21.75 1.5,1.5 0 0 0 8.4550781,22.298828 1.5,1.5 0 0 0 9.1777344,20.726562 l 1.7499996,-1.009765 -0.482422,2.796875 a 0.50005,0.50005 0 1 0 0.984376,0.169922 l 0.59375,-3.433594 -0.285157,0 0.05859,-0.0332 a 0.50005,0.50005 0 0 0 0.121094,-0.07031 L 15,17.367188 l 0,3.398437 -2.820312,2.349609 a 0.50064424,0.50064424 0 1 0 0.640624,0.769532 L 15,22.068359 15,24.087891 A 1.5,1.5 0 0 0 14,25.5 1.5,1.5 0 0 0 15.5,27 1.5,1.5 0 0 0 17,25.5 1.5,1.5 0 0 0 16,24.087891 l 0,-2.019532 2.179688,1.816407 a 0.50064424,0.50064424 0 1 0 0.640624,-0.769532 L 16,20.765625 l 0,-3.398437 3.082031,1.777343 a 0.50005,0.50005 0 0 0 0.125,0.07422 l 0.05469,0.03125 -0.285157,0 0.59375,3.433594 a 0.50005,0.50005 0 1 0 0.984376,-0.169922 l -0.482422,-2.796875 1.748046,1.009765 a 1.5,1.5 0 0 0 0.72461,1.572266 A 1.5,1.5 0 0 0 24.59375,21.75 1.5,1.5 0 0 0 24.044922,19.701172 1.5,1.5 0 0 0 22.322266,19.859375 l -1.75,-1.009766 2.662109,-0.978515 a 0.50005,0.50005 0 1 0 -0.345703,-0.9375 L 19.445312,18.199219 16.501953,16.5 l 2.943359,-1.699219 3.44336,1.265625 a 0.50005,0.50005 0 1 0 0.345703,-0.9375 l -2.662109,-0.978515 1.75,-1.009766 a 1.5,1.5 0 0 0 1.722656,0.158203 1.5,1.5 0 0 0 0.548828,-2.048828 1.5,1.5 0 0 0 -2.048828,-0.548828 1.5,1.5 0 0 0 -0.72461,1.572266 l -1.748046,1.009765 0.482422,-2.796875 A 0.50005,0.50005 0 1 0 19.570312,10.316406 L 18.943359,13.933594 16,15.632812 16,12.234375 18.820312,9.8847656 A 0.50064393,0.50064393 0 1 0 18.179688,9.1152344 L 16,10.931641 16,8.9121094 A 1.5,1.5 0 0 0 17,7.5 1.5,1.5 0 0 0 15.5,6 Z" style="opacity:0.2"/>
 <path style="fill:#ffffff" d="M 15.5 5 A 1.5 1.5 0 0 0 14 6.5 A 1.5 1.5 0 0 0 15 7.9121094 L 15 9.9316406 L 12.820312 8.1152344 A 0.50064393 0.50064393 0 1 0 12.179688 8.8847656 L 15 11.234375 L 15 14.632812 L 12.056641 12.933594 L 11.429688 9.3164062 A 0.50005 0.50005 0 1 0 10.445312 9.4863281 L 10.927734 12.283203 L 9.1777344 11.273438 A 1.5 1.5 0 0 0 8.4550781 9.7011719 A 1.5 1.5 0 0 0 6.40625 10.25 A 1.5 1.5 0 0 0 6.9550781 12.298828 A 1.5 1.5 0 0 0 8.6777344 12.140625 L 10.427734 13.150391 L 7.765625 14.128906 A 0.50005 0.50005 0 1 0 8.1113281 15.066406 L 11.554688 13.800781 L 14.498047 15.5 L 11.554688 17.199219 L 8.1113281 15.933594 A 0.50005 0.50005 0 1 0 7.765625 16.871094 L 10.427734 17.849609 L 8.6777344 18.859375 A 1.5 1.5 0 0 0 6.9550781 18.701172 A 1.5 1.5 0 0 0 6.40625 20.75 A 1.5 1.5 0 0 0 8.4550781 21.298828 A 1.5 1.5 0 0 0 9.1777344 19.726562 L 10.927734 18.716797 L 10.445312 21.513672 A 0.50005 0.50005 0 1 0 11.429688 21.683594 L 12.023438 18.25 L 11.738281 18.25 L 11.796875 18.216797 A 0.50005 0.50005 0 0 0 11.917969 18.146484 L 15 16.367188 L 15 19.765625 L 12.179688 22.115234 A 0.50064424 0.50064424 0 1 0 12.820312 22.884766 L 15 21.068359 L 15 23.087891 A 1.5 1.5 0 0 0 14 24.5 A 1.5 1.5 0 0 0 15.5 26 A 1.5 1.5 0 0 0 17 24.5 A 1.5 1.5 0 0 0 16 23.087891 L 16 21.068359 L 18.179688 22.884766 A 0.50064424 0.50064424 0 1 0 18.820312 22.115234 L 16 19.765625 L 16 16.367188 L 19.082031 18.144531 A 0.50005 0.50005 0 0 0 19.207031 18.21875 L 19.261719 18.25 L 18.976562 18.25 L 19.570312 21.683594 A 0.50005 0.50005 0 1 0 20.554688 21.513672 L 20.072266 18.716797 L 21.820312 19.726562 A 1.5 1.5 0 0 0 22.544922 21.298828 A 1.5 1.5 0 0 0 24.59375 20.75 A 1.5 1.5 0 0 0 24.044922 18.701172 A 1.5 1.5 0 0 0 22.322266 18.859375 L 20.572266 17.849609 L 23.234375 16.871094 A 0.50005 0.50005 0 1 0 22.888672 15.933594 L 19.445312 17.199219 L 16.501953 15.5 L 19.445312 13.800781 L 22.888672 15.066406 A 0.50005 0.50005 0 1 0 23.234375 14.128906 L 20.572266 13.150391 L 22.322266 12.140625 A 1.5 1.5 0 0 0 24.044922 12.298828 A 1.5 1.5 0 0 0 24.59375 10.25 A 1.5 1.5 0 0 0 22.544922 9.7011719 A 1.5 1.5 0 0 0 21.820312 11.273438 L 20.072266 12.283203 L 20.554688 9.4863281 A 0.50005 0.50005 0 1 0 19.570312 9.3164062 L 18.943359 12.933594 L 16 14.632812 L 16 11.234375 L 18.820312 8.8847656 A 0.50064393 0.50064393 0 1 0 18.179688 8.1152344 L 16 9.9316406 L 16 7.9121094 A 1.5 1.5 0 0 0 17 6.5 A 1.5 1.5 0 0 0 15.5 5 z"/>
 <path style="fill:#ffffff;opacity:0.2" d="M 15.5 1 C 7.467 1 1 7.467 1 15.5 C 1 15.668901 1.0197182 15.832529 1.0253906 16 C 1.2895 8.2024902 7.6359007 2 15.5 2 C 23.364099 2 29.7105 8.2024902 29.974609 16 C 29.980282 15.832529 30 15.668901 30 15.5 C 30 7.467 23.533 1 15.5 1 z"/>
</svg>
